src/scalable/mimetypes/deb.svg

<?xml version="1.0" encoding="UTF-8" standalone="no"?>
<svg
   xmlns:dc="http://purl.org/dc/elements/1.1/"
   xmlns:cc="http://creativecommons.org/ns#"
   xmlns:rdf="http://www.w3.org/1999/02/22-rdf-syntax-ns#"
   xmlns:svg="http://www.w3.org/2000/svg"
   xmlns="http://www.w3.org/2000/svg"
   xmlns:xlink="http://www.w3.org/1999/xlink"
   xmlns:sodipodi="http://sodipodi.sourceforge.net/DTD/sodipodi-0.dtd"
   xmlns:inkscape="http://www.inkscape.org/namespaces/inkscape"
   width="48px"
   height="48px"
   viewBox="0 0 48 48"
   version="1.1"
   id="svg25"
   sodipodi:docname="deb.svg"
   inkscape:version="0.92.2 2405546, 2018-03-11">
  <metadata
     id="metadata29">
    <rdf:RDF>
      <cc:Work
         rdf:about="">
        <dc:format>image/svg+xml</dc:format>
        <dc:type
           rdf:resource="http://purl.org/dc/dcmitype/StillImage" />
      </cc:Work>
    </rdf:RDF>
  </metadata>
  <sodipodi:namedview
     pagecolor="#ffffff"
     bordercolor="#666666"
     borderopacity="1"
     objecttolerance="10"
     gridtolerance="10"
     guidetolerance="10"
     inkscape:pageopacity="0"
     inkscape:pageshadow="2"
     inkscape:window-width="1920"
     inkscape:window-height="1051"
     id="namedview27"
     showgrid="false"
     inkscape:zoom="4.9166667"
     inkscape:cx="24"
     inkscape:cy="24"
     inkscape:window-x="0"
     inkscape:window-y="29"
     inkscape:window-maximized="1"
     inkscape:current-layer="svg25" />
  <!-- Generator: Sketch 41.2 (35397) - http://www.bohemiancoding.com/sketch -->
  <title
     id="title2">deb</title>
  <desc
     id="desc4">Created with Sketch.</desc>
  <g
     id="g829">
    <rect
       rx="2"
       ry="1.9047618"
       y="4"
       x="6"
       height="40"
       width="36"
       id="rect834"
       style="opacity:1;fill:#ee527f;fill-opacity:1;stroke:none;stroke-width:0.92582005;stroke-linecap:round;stroke-linejoin:round;stroke-miterlimit:4;stroke-dasharray:none;stroke-opacity:0.05882353;paint-order:markers stroke fill" />
    <path
       inkscape:connector-curvature="0"
       id="rect866"
       d="M 42,17.242188 A 40,40 0 0 1 23.494141,44 H 40 c 1.108,0 2,-0.849059 2,-1.904297 z"
       style="opacity:0.15;fill:url(#linearGradient877);fill-opacity:1;stroke:none;stroke-width:0.92582005;stroke-linecap:round;stroke-linejoin:round;stroke-miterlimit:4;stroke-dasharray:none;stroke-opacity:0.05882353;paint-order:markers stroke fill" />
  </g>
  <defs
     id="defs11">
    <linearGradient
       inkscape:collect="always"
       xlink:href="#linearGradient875"
       id="linearGradient877"
       x1="32.74707"
       y1="44"
       x2="32.74707"
       y2="17.242188"
       gradientUnits="userSpaceOnUse" />
    <linearGradient
       inkscape:collect="always"
       id="linearGradient875">
      <stop
         style="stop-color:#000000;stop-opacity:1;"
         offset="0"
         id="stop871" />
      <stop
         style="stop-color:#000000;stop-opacity:0;"
         offset="1"
         id="stop873" />
    </linearGradient>
  </defs>
  <g
     id="Page-1"
     stroke="none"
     stroke-width="1"
     fill="none"
     fill-rule="evenodd">
    <g
       id="deb">
      <path
         d="M28.4691047,18.4753783 C28.4836747,18.8664733 28.3549813,19.0565173 28.2385917,19.3925743 L28.0292847,19.4966613 C27.8581803,19.829157 28.0462813,19.707749 27.9237403,19.9720947 C27.6563193,20.2095683 27.1133833,20.714949 26.9395273,20.7612457 C26.8124537,20.758479 27.025484,20.6113473 27.053327,20.553881 C26.6957403,20.799287 26.766319,20.9223137 26.2193357,21.071726 L26.2034723,21.035951 C24.8550353,21.6705097 22.9817933,20.4132097 23.0063983,18.6979593 C22.9921517,18.8067407 22.965443,18.7795453 22.935658,18.8232523 C22.866051,17.94086 23.343265,17.0545823 24.148118,16.6921397 C24.9353263,16.302663 25.858188,16.462274 26.4216827,16.9882127 C26.1121737,16.5825487 25.4955837,16.152441 24.7653553,16.1922627 C24.049697,16.2039193 23.3800107,16.658631 23.15662,17.152518 C22.7901303,17.383193 22.7473947,18.042195 22.5877837,18.1629553 C22.3726493,19.7428767 22.9919913,20.4251887 24.039822,21.2282613 C24.2042893,21.339309 24.086119,21.356306 24.108134,21.440806 C23.7600983,21.2779577 23.441524,21.0319043 23.179283,20.730651 C23.3184977,20.9341307 23.468558,21.1319443 23.6626487,21.2873467 C23.3341997,21.1764607 22.8956743,20.492044 22.767953,20.4642013 C23.3337143,21.4772283 25.0630473,22.240803 25.969074,21.8618487 C25.549812,21.8773887 25.0173987,21.8704287 24.5466593,21.69641 C24.34836,21.5945893 24.0798057,21.383987 24.1278833,21.344651 C25.3639777,21.8061627 26.640541,21.693982 27.709901,20.8368423 C27.9821787,20.6247833 28.2793853,20.2642827 28.3653417,20.2594263 C28.2360017,20.4540027 28.3875183,20.3529917 28.2881263,20.5247433 C28.5587853,20.087513 28.1701177,20.3466783 28.5681737,19.769748 L28.7151587,19.9720947 C28.6601203,19.6088423 29.1659863,19.1682123 29.1145093,18.594196 C29.2305753,18.418721 29.2438493,18.7832687 29.1208227,19.1869903 C29.2916033,18.739076 29.1659863,18.6670407 29.209693,18.2973133 C29.2567993,18.421635 29.319446,18.553565 29.3513353,18.6848473 C29.2399643,18.251826 29.4651353,17.9559143 29.521145,17.7041953 C29.4657827,17.679912 29.3493933,17.8955343 29.3225213,17.384326 C29.326568,17.1622307 29.3845203,17.2679363 29.4066977,17.213222 C29.3633143,17.188132 29.248867,17.0178363 29.1794223,16.69133 C29.229442,16.6144383 29.3141037,16.8902773 29.3827397,16.9014467 C29.3385473,16.6419577 29.262627,16.4439817 29.2593893,16.244711 C29.0586617,15.825449 29.188325,16.3007207 29.0258003,16.0647037 C28.8121227,15.398741 29.202894,15.910111 29.229442,15.6077243 C29.552873,16.0763587 29.737251,16.8031873 29.8222367,17.1041167 C29.7574857,16.7371413 29.6530747,16.3814973 29.5253533,16.0375083 C29.6239367,16.0791107 29.3668757,15.282675 29.6533987,15.810071 C29.3476127,14.685834 28.345755,13.6352513 27.423864,13.142497 C27.5363687,13.245613 27.6786587,13.3751147 27.6278297,13.395511 C27.1690693,13.122748 27.2496843,13.1012183 27.1839623,12.985962 C26.8108353,12.8339593 26.7859063,12.9984253 26.5390437,12.9862857 C25.834878,12.612673 25.6992247,12.652333 25.051231,12.4185823 L25.080691,12.5565017 C24.6143233,12.4010997 24.5372693,12.6151013 24.033346,12.5568257 C24.0027493,12.533029 24.1948993,12.4700593 24.353215,12.4472347 C23.9022253,12.5068053 23.9232693,12.3582023 23.4819927,12.4635847 C23.590612,12.3873403 23.7058683,12.336673 23.8217727,12.271922 C23.4541493,12.294262 22.943751,12.4859237 23.101257,12.31142 C22.5015023,12.579165 21.4361887,12.9548817 20.8383767,13.5154623 L20.8196,13.3898457 C20.5457033,13.7186183 19.6251083,14.3717927 19.551778,14.798015 L19.4784473,14.8150117 C19.3361573,15.0563703 19.2437253,15.329781 19.130735,15.5779387 C18.9444143,15.8957037 18.8574867,15.7003177 18.8840343,15.750176 C18.5173827,16.493516 18.3349473,17.118038 18.177764,17.630541 C18.2897833,17.7980837 18.1805307,18.6393597 18.222766,19.3126067 C18.038874,22.638211 20.556711,25.866851 23.3089467,26.6121337 C23.7123443,26.75669 24.3120997,26.75151 24.8223363,26.765755 C24.220477,26.5935177 24.142776,26.6746183 23.556133,26.4701673 C23.133148,26.2707347 23.0405543,26.043297 22.740758,25.7831607 L22.8594137,25.9927913 C22.2717997,25.7847793 22.517691,25.7354067 22.0395063,25.5840517 L22.166256,25.418775 C21.975726,25.404205 21.6616847,25.0979343 21.5758897,24.9278017 L21.3673917,24.9360583 C21.1171297,24.6275203 20.9835817,24.4046157 20.993456,24.2318927 L20.926115,24.3520057 C20.849871,24.221047 20.004872,23.193289 20.443235,23.4325433 C20.361811,23.3584033 20.253515,23.311621 20.1361543,23.098105 L20.2253483,22.9962843 C20.0147463,22.7248163 19.8371673,22.3769423 19.850765,22.261038 C19.9632693,22.412879 20.041294,22.4413693 20.1186717,22.4674317 C19.585934,21.1458667 19.5559863,22.394749 19.1527503,21.1222323 L19.237898,21.1154323 C19.1726613,21.0165253 19.1326777,20.9098483 19.0802293,20.80479 L19.117461,20.4349007 C18.734136,19.9920047 19.0102987,18.549841 19.0658223,17.759071 C19.1038637,17.437583 19.3858533,17.095213 19.600017,16.5582663 L19.469544,16.5359263 C19.7191587,16.1008007 20.894387,14.787815 21.4389413,14.8551557 C21.7026393,14.523955 21.3864937,14.8538557 21.3348547,14.770656 C21.9142127,14.1712247 22.096325,14.3471853 22.4872583,14.2392133 C22.9086247,13.989113 22.1254627,14.336987 22.3252193,14.1438677 C23.054152,13.9578707 22.8416077,13.7207207 23.7923123,13.6263463 C23.892676,13.683327 23.5596943,13.7144073 23.476166,13.7883853 C24.083205,13.491179 25.3974857,13.5590053 26.2515497,13.9531763 C27.2417527,14.416307 28.3549817,15.7846543 28.399012,17.0720633 L28.4490323,17.0855 C28.423779,17.5973553 28.5273807,18.1893403 28.347535,18.7329237 L28.469105,18.4753773"
         id="path2536"
         fill="#FFFFFF" />
      <path
         d="M16.5098995,31.7237799 C16.501494,31.7320742 16.501494,33.0484092 16.4841225,33.3920081 C16.4669378,33.6697814 16.4407872,34.2667999 15.8176551,34.2667999 C15.1771517,34.2667999 15.0213687,33.5716607 14.969441,33.2693572 C14.908921,32.9340527 14.908921,32.6557499 14.908921,32.533452 C14.908921,32.1407928 14.9348848,31.0447 15.9129181,31.0447 C16.2072994,31.0447 16.3716748,31.1267614 16.501494,31.191881 L16.5098995,31.7237799 L16.5098995,31.7237799 Z M14,32.6889274 C14,34.9947636 15.2983785,34.9947636 15.4887177,34.9947636 C16.0253658,34.9947636 16.3716748,34.7166374 16.5186787,34.2343283 L16.5360501,34.9619391 C16.7006123,34.9536447 16.8649876,34.9374089 17.1332183,34.9374089 C17.2284813,34.9374089 17.306186,34.9374089 17.375672,34.9457033 C17.4449711,34.9457033 17.5140835,34.9536447 17.591975,34.9619391 C17.4535635,34.7004016 17.3497081,34.1116774 17.3497081,32.835579 C17.3497081,31.5926581 17.3497081,29.4911812 17.4621558,28.8532203 C17.1507766,28.9924599 16.8821723,29.0824627 16.2935965,29.1313465 C16.527271,29.3685304 16.527271,29.4911812 16.527271,30.5703323 C16.3630824,30.5214485 16.155185,30.4640937 15.8002837,30.4640937 C14.251046,30.4642702 14,31.7400157 14,32.6889274 L14,32.6889274 Z"
         id="path2550"
         fill="#FFFFFF" />
      <path
         d="M18.694037,32.2713851 C18.7028161,31.5926581 18.8500068,30.9875217 19.4643596,30.9875217 C20.1396061,30.9875217 20.1911602,31.6906024 20.1739755,32.2713851 L18.694037,32.2713851 L18.694037,32.2713851 Z M21.030782,32.3534464 C21.030782,31.3965932 20.8318505,30.4559758 19.5508435,30.4559758 C17.7853028,30.4559758 17.7853028,32.3045626 17.7853028,32.6966924 C17.7853028,34.3566262 18.5728102,35.010823 19.8971525,35.010823 C20.4853547,35.010823 20.7713305,34.9294675 20.9271135,34.8881721 C20.9185211,34.59381 20.9616697,34.4056865 21.0139709,34.1522669 C20.8318505,34.2588585 20.598176,34.3977451 20.0788993,34.3977451 C18.7285932,34.3977451 18.7112217,33.2361797 18.7112217,32.835579 L21.0139709,32.835579 L21.030782,32.3534464 L21.030782,32.3534464 Z"
         id="path2552"
         fill="#FFFFFF" />
      <path
         d="M23.8466438,32.7049868 C23.8466438,33.4654221 23.69964,34.4877479 22.6956428,34.4877479 C22.5570445,34.4877479 22.3840768,34.4628648 22.2716291,34.4385111 C22.2542576,34.144149 22.2542576,33.6371333 22.2542576,33.0484092 C22.2542576,32.3449756 22.3319623,31.9775524 22.3928559,31.7971939 C22.574416,31.2167641 22.981245,31.2088227 23.0589497,31.2088227 C23.7168247,31.2088227 23.8466438,32.0673788 23.8466438,32.7049868 L23.8466438,32.7049868 Z M21.3627082,33.5963673 C21.3627082,34.2016802 21.3627082,34.5449262 21.2588528,34.8064637 C21.6137541,34.9374089 22.0549525,35.010823 22.5831951,35.010823 C22.920725,35.010823 23.8987583,35.010823 24.4266273,33.9888501 C24.6776733,33.5144824 24.7641572,32.8765215 24.7641572,32.3940359 C24.7641572,32.0996739 24.7294142,31.4537715 24.478555,31.0447 C24.2364749,30.6606881 23.8468306,30.4642702 23.4315961,30.4642702 C22.6005666,30.4642702 22.3582998,31.118467 22.2286674,31.4537715 C22.2286674,31.0367586 22.2370729,29.581184 22.3061853,28.8369845 C21.7437601,29.0824627 21.3972643,29.1230522 21.0253651,29.1558767 C21.3628949,29.286469 21.3628949,29.8266622 21.3628949,31.5848932 L21.3628949,33.5963673 L21.3627082,33.5963673 Z"
         id="path2554"
         fill="#FFFFFF" />
      <path
         d="M26.428084,34.9619391 C26.2547427,34.9374089 26.1333291,34.9209966 25.8822831,34.9209966 C25.6058337,34.9209966 25.4149341,34.9375854 25.2161894,34.9619391 C25.3026732,34.8064637 25.3372294,34.7326967 25.3631932,34.2015037 C25.3979362,33.47354 25.4065286,31.5271855 25.3460085,31.1182905 C25.3026732,30.8073397 25.2249685,30.7584558 25.1037417,30.6767474 C25.8133575,30.6112748 26.0124759,30.5623909 26.3412266,30.4152099 C26.272301,30.7746916 26.2631483,30.9550501 26.2631483,31.5026554 C26.2461504,34.3243311 26.2373712,34.6266346 26.428084,34.9619391"
         id="path2556"
         fill="#FFFFFF" />
      <path
         d="M29.1996765,32.6474556 C29.1824918,33.1627657 29.1737127,33.5226003 29.0263353,33.808668 C28.8445884,34.1767971 28.5418016,34.2830357 28.3167194,34.2830357 C27.7968824,34.2830357 27.6848083,33.8743171 27.6848083,33.4737165 C27.6848083,32.7051632 28.4119824,32.6474556 28.7405463,32.6474556 L29.1996765,32.6474556 L29.1996765,32.6474556 Z M26.8192226,33.6535456 C26.8192226,34.1688557 26.9837848,34.6838128 27.468692,34.9047608 C27.6849951,34.9947636 27.9012981,34.9947636 27.970784,34.9947636 C28.7672573,34.9947636 29.0353012,34.4385111 29.1998633,34.0950887 C29.1910842,34.4549234 29.1998633,34.6755184 29.2258272,34.9619391 C29.3816102,34.9536447 29.5373932,34.9374089 29.7972183,34.9374089 C29.9442222,34.9374089 30.0828205,34.9536447 30.2298243,34.9619391 C30.1345613,34.8230524 30.0828205,34.7409911 30.0564831,34.4220988 C30.0392984,34.111501 30.0392984,33.8007266 30.0392984,33.3673014 L30.0480775,31.6990732 C30.0480775,31.0773481 29.8747362,30.4640937 28.5763577,30.4640937 C27.719738,30.4640937 27.2178328,30.7095719 26.9667868,30.8322228 C27.070829,31.0122284 27.1573128,31.1671744 27.2350175,31.5192441 C27.572921,31.2411178 28.0143061,31.0939368 28.4640969,31.0939368 C29.1828654,31.0939368 29.1828654,31.5437743 29.1828654,32.1813823 C29.0183033,32.1734409 28.879705,32.1572051 28.6458437,32.1572051 C27.54621,32.1573815 26.8192226,32.5574528 26.8192226,33.6535456 L26.8192226,33.6535456 Z"
         id="path2558"
         fill="#FFFFFF" />
      <path
         d="M34.1851062,34.1524434 C34.1938853,34.4305697 34.1938853,34.7249317 34.3149254,34.9621156 C34.1242126,34.9458798 34.0117649,34.9211731 33.6572372,34.9211731 C33.4493397,34.9211731 33.336892,34.9377619 33.1723299,34.9621156 C33.2066993,34.855877 33.2244443,34.8149345 33.241629,34.6756949 C33.2675929,34.4879244 33.2849644,33.8580813 33.2849644,33.6371333 L33.2849644,32.7540471 C33.2849644,32.3696822 33.2849644,31.8134297 33.258627,31.6173648 C33.2414423,31.4784781 33.1984805,31.1024077 32.696015,31.1024077 C32.2027021,31.1024077 32.0383268,31.4456536 31.97762,31.7237799 C31.9086944,32.0098476 31.9086944,32.3207984 31.9086944,33.5308947 C31.9170999,34.5777507 31.9170999,34.6755184 32.0035838,34.9619391 C31.8565799,34.9457033 31.6748331,34.9294675 31.4151948,34.9294675 C31.2072973,34.9294675 31.0688858,34.9374089 30.8961049,34.9619391 C30.9566249,34.8309938 30.9913679,34.7655212 31.0085526,34.3077423 C31.0261108,33.8579049 31.060667,31.6498364 30.9822151,31.1267614 C30.9392534,30.8075162 30.852396,30.7341021 30.7575066,30.6523937 C31.4587169,30.6195692 31.6834254,30.5131541 31.900102,30.4072685 L31.900102,31.2737659 C32.0037706,31.0199933 32.2200736,30.4557994 33.085846,30.4557994 C34.1679215,30.4557994 34.1763271,31.1999989 34.1851062,31.6904259 L34.1851062,34.1524434"
         id="path2560"
         fill="#FFFFFF" />
      <polyline
         id="path2562"
         fill="#FFFFFF"
         points="26.501119 29.2578799 25.7842183 29.934842 25.0676912 29.2578799 25.7842183 28.5809177 26.501119 29.2578799" />
    </g>
  </g>
</svg>

<svg xmlns="http://www.w3.org/2000/svg" xmlns:xlink="http://www.w3.org/1999/xlink" width="48" height="48"><g paint-order="markers stroke fill"><rect rx="2" ry="1.905" y="4" x="6" height="40" width="36" fill="#ee527f"/><path d="M42 17.242A40 40 0 0 1 23.494 44H40c1.108 0 2-.85 2-1.904z" opacity=".15" fill="url(#a)"/></g><defs><linearGradient xlink:href="#b" id="a" x1="32.747" y1="44" x2="32.747" y2="17.242" gradientUnits="userSpaceOnUse"/><linearGradient id="b"><stop offset="0"/><stop offset="1" stop-opacity="0"/></linearGradient></defs><g fill="#FFF" fill-rule="evenodd"><path d="M28.47 18.475c.014.391-.115.582-.231.918l-.21.104c-.17.332.017.21-.105.475-.268.238-.81.743-.984.79-.128-.004.085-.15.113-.208-.357.245-.287.368-.834.518l-.016-.036c-1.348.635-3.221-.623-3.197-2.338-.014.109-.04.082-.07.125-.07-.882.407-1.768 1.212-2.13.787-.39 1.71-.23 2.274.295-.31-.405-.926-.836-1.657-.796-.715.012-1.385.467-1.608.96-.367.231-.41.89-.57 1.011-.214 1.58.405 2.262 1.453 3.065.164.111.046.128.068.213a2.842 2.842 0 0 1-.929-.71c.14.203.29.4.484.556-.329-.11-.767-.795-.895-.823.566 1.013 2.295 1.777 3.201 1.398-.42.015-.952.008-1.422-.166-.199-.101-.467-.312-.42-.351 1.237.461 2.514.349 3.583-.508.272-.212.57-.573.655-.578-.129.195.023.094-.077.266.27-.437-.118-.178.28-.755l.147.202c-.055-.363.451-.804.4-1.378.116-.175.129.19.006.593.17-.448.045-.52.089-.89.047.125.11.257.141.388-.111-.433.114-.73.17-.98-.055-.025-.172.19-.198-.32.004-.223.062-.117.084-.172-.044-.025-.158-.195-.228-.522.05-.077.135.2.204.21-.044-.259-.12-.457-.124-.656-.2-.42-.07.056-.233-.18-.214-.666.177-.155.203-.457.324.468.508 1.195.593 1.496a6.127 6.127 0 0 0-.297-1.066c.099.041-.158-.755.128-.228-.305-1.124-1.307-2.175-2.23-2.668.113.104.256.233.205.254-.459-.273-.378-.295-.444-.41-.373-.152-.398.012-.645 0-.704-.373-.84-.334-1.488-.567l.03.138c-.467-.156-.544.058-1.048 0-.03-.024.162-.087.32-.11-.45.06-.43-.089-.871.017.109-.077.224-.127.34-.192-.368.022-.878.214-.72.04-.6.267-1.666.643-2.264 1.203l-.018-.125c-.274.329-1.195.982-1.268 1.408l-.074.017c-.142.241-.234.515-.347.763-.187.318-.274.122-.247.172-.367.744-.55 1.368-.706 1.88.112.168.003 1.01.045 1.683-.184 3.325 2.334 6.554 5.086 7.3.403.144 1.003.139 1.513.153-.602-.172-.68-.091-1.266-.296-.423-.2-.515-.427-.815-.687l.118.21c-.587-.208-.341-.258-.82-.409l.127-.165c-.19-.015-.504-.321-.59-.491l-.209.008c-.25-.308-.383-.531-.374-.704l-.067.12c-.076-.131-.921-1.159-.483-.92-.081-.074-.19-.12-.307-.334l.09-.102c-.211-.271-.389-.62-.375-.735.112.152.19.18.268.206-.533-1.321-.563-.072-.966-1.345l.085-.007c-.065-.098-.105-.205-.158-.31l.037-.37c-.383-.443-.107-1.885-.051-2.676.038-.321.32-.664.534-1.2l-.13-.023c.25-.435 1.424-1.748 1.969-1.68.264-.332-.053-.002-.104-.085.58-.6.761-.424 1.152-.532.422-.25-.362.098-.162-.095.73-.186.517-.423 1.467-.518.1.057-.232.088-.316.162.607-.297 1.921-.229 2.776.165.99.463 2.103 1.832 2.147 3.12l.05.012c-.025.512.078 1.104-.101 1.648l.121-.258M16.51 31.724c-.009.008-.009 1.324-.026 1.668-.017.278-.043.875-.666.875-.64 0-.797-.695-.849-.998-.06-.335-.06-.613-.06-.736 0-.392.026-1.488 1.004-1.488.294 0 .459.082.588.147l.009.532zm-2.51.965c0 2.306 1.298 2.306 1.489 2.306.536 0 .883-.278 1.03-.76l.017.727c.165-.008.329-.025.597-.025.095 0 .173 0 .243.009.069 0 .138.008.216.016-.138-.262-.242-.85-.242-2.126 0-1.243 0-3.345.112-3.983-.311.14-.58.23-1.168.278.233.238.233.36.233 1.44a2.303 2.303 0 0 0-.727-.107c-1.549 0-1.8 1.276-1.8 2.225zM18.694 32.271c.009-.678.156-1.283.77-1.283.676 0 .727.703.71 1.283h-1.48zm2.337.082c0-.956-.2-1.897-1.48-1.897-1.766 0-1.766 1.849-1.766 2.24 0 1.66.788 2.315 2.112 2.315.588 0 .874-.082 1.03-.123-.008-.294.035-.482.087-.736-.182.107-.416.246-.935.246-1.35 0-1.368-1.162-1.368-1.562h2.303l.017-.483zM23.847 32.705c0 .76-.147 1.783-1.151 1.783-.139 0-.312-.025-.424-.05-.018-.294-.018-.8-.018-1.39 0-.703.078-1.07.139-1.25.181-.581.588-.59.666-.59.658 0 .788.86.788 1.497zm-2.484.891c0 .606 0 .949-.104 1.21.355.131.796.205 1.324.205.338 0 1.316 0 1.844-1.022.25-.475.337-1.112.337-1.595 0-.294-.035-.94-.285-1.35a1.216 1.216 0 0 0-1.047-.58c-.831 0-1.074.654-1.203.99 0-.417.008-1.873.077-2.617a3.588 3.588 0 0 1-1.28.319c.337.13.337.67.337 2.429v2.011zM26.428 34.962a3.269 3.269 0 0 0-.546-.041c-.276 0-.467.017-.666.04.087-.155.121-.228.147-.76.035-.727.044-2.674-.017-3.083-.043-.31-.121-.36-.242-.441.71-.066.908-.115 1.237-.262-.069.36-.078.54-.078 1.088-.017 2.821-.026 3.124.165 3.459M29.2 32.647c-.018.516-.026.876-.174 1.162-.181.368-.484.474-.71.474-.52 0-.631-.409-.631-.81 0-.768.727-.826 1.056-.826h.459zm-2.38 1.007c0 .515.164 1.03.649 1.25.216.09.432.09.502.09.796 0 1.064-.555 1.229-.899-.009.36 0 .58.026.867.156-.008.311-.025.571-.025.147 0 .286.017.433.025-.095-.139-.147-.221-.174-.54-.017-.31-.017-.621-.017-1.055l.01-1.668c0-.622-.174-1.235-1.473-1.235-.856 0-1.358.246-1.61.368.105.18.191.335.269.687a1.94 1.94 0 0 1 1.23-.425c.718 0 .718.45.718 1.087-.165-.008-.303-.024-.537-.024-1.1 0-1.827.4-1.827 1.497zM34.185 34.152c.009.279.009.573.13.81-.19-.016-.303-.04-.658-.04-.208 0-.32.016-.485.04.035-.106.052-.147.07-.286.026-.188.043-.818.043-1.039v-.883c0-.384 0-.94-.026-1.137-.018-.139-.06-.515-.563-.515-.493 0-.658.344-.718.622-.07.286-.07.597-.07 1.807.01 1.047.01 1.145.096 1.43a5.064 5.064 0 0 0-.589-.032c-.208 0-.346.008-.519.033.06-.131.095-.196.113-.654.017-.45.052-2.658-.027-3.181-.043-.32-.13-.393-.224-.475.7-.032.925-.139 1.142-.245v.867c.104-.254.32-.818 1.186-.818 1.082 0 1.09.744 1.1 1.234v2.462M26.501 29.258l-.717.677-.716-.677.716-.677.717.677"/></g></svg>
